collections/phosporicons/regular/article-medium.svg

<svg xmlns="http://www.w3.org/2000/svg" viewBox="0 0 256.012 256" width="20" height="20"><path fill="none" d="M0 0h256v256H0z"/><path fill="none" stroke="#000" stroke-linecap="round" stroke-linejoin="round" stroke-width="16" d="M24.07 56.001h16M120.07 56.001h16M24.07 136.001h24M112.07 136.001h24M168.07 104.001h72M168.07 136.001h72M72.07 168.001h168M72.07 200.001h168M40.07 136.001v-80l40 64 40-64v80M24.07 56.001h16M120.07 56.001h16M24.07 136.001h24M112.07 136.001h24M168.07 104.001h72M168.07 136.001h72M72.07 168.001h168M72.07 200.001h168"/><path fill="none" stroke="#000" stroke-linecap="round" stroke-linejoin="round" stroke-width="16" d="M40.07 136.001v-80l40 64 40-64v80"/></svg>

<svg xmlns="http://www.w3.org/2000/svg" viewBox="0 0 256.012 256" width="20" height="20"><path fill="none" d="M0 0h256v256H0z"/><path fill="none" stroke="#000" stroke-linecap="round" stroke-linejoin="round" stroke-width="16" d="M24.07 56.001h16m80 0h16m-112 80h24m64 0h24m32-32h72m-72 32h72m-168 32h168m-168 32h168m-200-64v-80l40 64 40-64v80m-96-80h16m80 0h16m-112 80h24m64 0h24m32-32h72m-72 32h72m-168 32h168m-168 32h168"/><path fill="none" stroke="#000" stroke-linecap="round" stroke-linejoin="round" stroke-width="16" d="M40.07 136.001v-80l40 64 40-64v80"/></svg>
